X:1
T:Title
%%score { ( 1 4 ) | ( 2 3 ) }
L:1/8
Q:1/4=96
M:4/4
K:Eb
V:1 treble nm="Grand Piano"
V:4 treble 
V:2 bass 
V:3 bass 
V:1
 G2 G2 FEDE | .[DAB]2 .[CAB]2 [EGB]4 | [EAc][Ece][EBd][EAc] [EAc][EGB][B,EG][B,E] | %3
w: Charles~H.~Gabriel * * * * *|||
 [B,DA]2 [B,EG]2 [B,DF]4 | [B,EG]2 [B,EG]2 [A,B,F][G,B,E][A,B,D][B,E] | %5
w: ||
 .[DAB]2 .[CAB]2 [EGB]3 [Gc] | dddF ed d>c |[M:5/8] [B,DB]-[B,DB]- [B,DB]3 |[M:3/8] Bcd | %9
w: ||||
[M:4/4] e2 e2 z4 | [Ac]2 [GB]2 [GB]2 [EG]2 | z4 [FA]4 | [Ac][GB][GB][_G=A] [=GB]Bcd | %13
w: ||||
 e-[Ge]e-[Be] [ce][ce][Bd][Ac] | [Ac]2 [GB]2 [GB]2 [Ge]2 | [Fd][Fd][DF][EG] [GB]>[FA] [EG][DF] | %16
w: |||
 E6 z2 |] %17
w: |
V:2
 [E,B,E]2 [E,B,E]2 [E,A,B,][E,G,B,][F,A,B,][G,B,] | z B, z D E,4 | A,A,A,A, E,E,E,G, | %3
 F,2 E,2 B,,4 | E,2 E,2 E,E,F,G, | z B, z D E,3 [E,B,] | %6
 [F,B,F][F,B,F][F,B,F][F,D] [F,CF][F,B,F] [F,B,F]>[F,=A,E] |[M:5/8] B,,-B,,- B,,3 | %8
[M:3/8] B,[K:treble][B,A][B,A] |[M:4/4][K:bass] [E,B,][E,B,][F,B,][G,E] [A,E]2 [A,E]2 | %10
 [E,E][E,E][E,E][E,E] [E,E]2 [E,B,]2 | [B,,B,]2 [B,,B,]2 [B,,B,]B,,B,,B,, | %12
 [E,E][E,E][E,E][E,E] [E,E][K:treble][B,D][B,C=A][B,_A] | [E,B,][E,B,][F,B,][G,E] [A,E]2 [A,E]2 | %14
 [E,E][E,E][E,E][E,E] [E,E]2 [E,B,]2 | %15
 [B,,B,][B,,B,][B,,B,][B,,B,] [B,,B,]>[B,,B,] [B,,B,][B,,A,] | [E,G,]6 z2 |] %17
V:3
 x8 | F,2 B,,2 z4 | x8 | x8 | x8 | F,2 B,,2 z4 | x8 |[M:5/8] x5 |[M:3/8] x[K:treble] x2 | %9
[M:4/4][K:bass] x8 | x8 | x8 | x5[K:treble] x3 | x8 | x8 | x8 | x8 |] %17
V:4
 x8 | x8 | x8 | x8 | x8 | x8 | x8 |[M:5/8] x5 |[M:3/8] x3 |[M:4/4] GGAB [ce][ce][Bd][Ac] | x8 | %11
 [GB][FA][FA][=EG] z B,C[DAd] | x8 | .G2 .A2 z4 | x8 | x8 | x8 |] %17

